icons/reshape-subtract-geometry-16.svg

<?xml version="1.0" encoding="UTF-8"?><svg id="icons" xmlns="http://www.w3.org/2000/svg" viewBox="0 0 16 16"><defs><style>.cls-1{fill:none;}.cls-1,.cls-2,.cls-3{stroke-width:0px;}.cls-2{fill:#6f6f6f;opacity:.5;}</style></defs><path class="cls-2" d="M16,11v-3h-3v.91064l-3-1.87488v.96423h-.34271l3.34271,2.08905v.91095h1v1h-1v1h-3v1h3v1h3v-3h-1v-1h1ZM15,14h-1v-1h1v1ZM14,9h1v1h-1v-1Z"/><path class="cls-3" d="M16,2v1h-5v-1h5ZM7,5h3v3h-1v4h1v3h-3v-1H3v1H0v-3h1V4H0V1h3v1.66077l4,2.5v-.16077ZM1,3h1v-1h-1v1ZM2,13h-1v1h1v-1ZM9,13h-1v1h1v-1ZM8,7h1v-1h-1v1ZM8,8h-1v-1.66077L3,3.83923v.16077h-1v8h1v1h4v-1h1v-4Z"/><rect class="cls-1" y="0" width="16" height="16"/></svg>

<svg xmlns="http://www.w3.org/2000/svg" viewBox="0 0 16 16"><path d="M16 11V8h-3v.91l-3-1.874V8h-.343L13 10.089V11h1v1h-1v1h-3v1h3v1h3v-3h-1v-1h1zm-1 3h-1v-1h1v1zm-1-5h1v1h-1V9z" fill="#6f6f6f" opacity=".5" stroke-width="0"/><path d="M16 2v1h-5V2h5zM7 5h3v3H9v4h1v3H7v-1H3v1H0v-3h1V4H0V1h3v1.66l4 2.5V5zM1 3h1V2H1v1zm1 10H1v1h1v-1zm7 0H8v1h1v-1zM8 7h1V6H8v1zm0 1H7V6.34l-4-2.5V4H2v8h1v1h4v-1h1V8z" stroke-width="0"/><path stroke-width="0" fill="none" d="M0 0h16v16H0z"/></svg>
